img/rounds-desktop.svg

<svg width="1079" height="852" viewBox="0 0 1079 852" fill="none" xmlns="http://www.w3.org/2000/svg">
<path d="M894.068 133.1C873.616 84.158 896.711 27.9032 945.653 7.45129C994.595 -13.0007 1050.85 10.0949 1071.3 59.0366C1091.75 107.978 1068.66 164.233 1019.72 184.685C970.774 205.137 914.52 182.042 894.068 133.1Z" fill="#957163" fill-opacity="0.12"/>
<path d="M647.122 475.951C607.862 382.003 652.196 274.017 746.144 234.758C840.092 195.498 948.078 239.832 987.338 333.78C1026.6 427.728 982.263 535.714 888.315 574.974C794.367 614.233 686.381 569.899 647.122 475.951Z" fill="#957163" fill-opacity="0.1"/>
<path d="M22.1581 676.186C-38.6605 530.647 30.0194 363.36 175.559 302.542C321.099 241.723 488.385 310.403 549.204 455.943C610.022 601.482 541.342 768.768 395.803 829.587C250.263 890.406 82.9767 821.726 22.1581 676.186Z" fill="#957163" fill-opacity="0.12"/>
</svg>

<svg width="1079" height="852" fill="none" xmlns="http://www.w3.org/2000/svg"><path d="M894.068 133.1c-20.452-48.942 2.643-105.197 51.585-125.649C994.595-13 1050.85 10.095 1071.3 59.037c20.45 48.941-2.64 105.196-51.58 125.648-48.946 20.452-105.2-2.643-125.652-51.585z" fill="#957163" fill-opacity=".12"/><path d="M647.122 475.951c-39.26-93.948 5.074-201.934 99.022-241.193 93.948-39.26 201.934 5.074 241.194 99.022 39.262 93.948-5.075 201.934-99.023 241.194-93.948 39.259-201.934-5.075-241.193-99.023z" fill="#957163" fill-opacity=".1"/><path d="M22.158 676.186C-38.66 530.647 30.02 363.36 175.56 302.542c145.54-60.819 312.826 7.861 373.645 153.401 60.818 145.539-7.862 312.825-153.401 373.644-145.54 60.819-312.826-7.861-373.645-153.401z" fill="#957163" fill-opacity=".12"/></svg>
